X:1
T:Title
%%score { ( 1 3 ) | ( 2 4 ) }
L:1/8
Q:1/4=90
M:6/8
K:Ab
V:1 treble nm="Grand Piano"
V:3 treble 
V:2 bass 
V:4 bass 
V:1
 [Ec][Ec][Ec] [Fd][Ec][DB] | [FA][EG][DF] [CE]3 | G>GG GAB | A3 z3 | [Ec][Ec][Ec] [Fd][Ec][DB] | %5
w: E.~E.~Meyer * * * * *|||||
 [FA][EG][DF] [CE]3 | G>GG GAB | [CA]6 | .B6 | [EAc]3 [CEA]3 | ccc cBA | [Ge]6 | %12
w: |||||||
 [Ec][Ec][Ec] [Fd][Ec][EB] | [FA]3 F3 | E>EA GFG | [CA]6 |] %16
w: ||||
V:2
 [A,,A,][A,,A,][A,,A,] [A,,A,][A,,A,][A,,A,] | [D,A,][D,A,][D,A,] [A,,A,]3 | %2
 [E,D]>[E,D][E,D] [E,D][E,C][E,D] | E,3 z3 | [A,,A,][A,,A,][A,,A,] [A,,A,][A,,A,][A,,A,] | %5
 [D,A,][D,A,][D,A,] [A,,A,]3 | [E,D]>[E,D][E,D] [E,D][E,C][E,D] | [A,,E,]6 | %8
 [E,E][E,E][E,E] [E,E][E,E][E,E] | A,3 A,,3 | [A,EA][A,EA][A,EA] [A,EA][B,EG][B,EF] | [F,B,]6 | %12
 [A,,A,][A,,A,][A,,A,] [A,,A,][A,,A,][B,,G,] | [D,A,]3 [D,A,D]3 | %14
 [E,C]>[E,C][E,C] [E,D][E,D][E,D] | [A,,E,]6 |] %16
V:3
 x6 | x6 | x6 | C3- [A,CE]3 | x6 | x6 | x6 | x6 | GGG G[Ac][Bd] | x6 | x6 | x6 | x6 | x6 | x6 | %15
 x6 |] %16
V:4
 x6 | x6 | x6 | A,,6 | x6 | x6 | x6 | x6 | x6 | x6 | x6 | x6 | x6 | x6 | x6 | x6 |] %16

